build/redact/FormatAlignJustifyOutline.svg

<svg xmlns="http://www.w3.org/2000/svg" fill="none" viewBox="0 0 24 24" focusable="false"><path d="M0 0H24V24H0z"/><path fill="#74767B" fill-rule="evenodd" d="M4.65 5.5C4.29101 5.5 4 5.79102 4 6.15C4 6.50899 4.29101 6.8 4.65 6.8L19.35 6.8C19.709 6.8 20 6.50899 20 6.15C20 5.79102 19.709 5.5 19.35 5.5L4.65 5.5ZM4.65 13.3C4.29101 13.3 4 13.5911 4 13.95C4 14.309 4.29101 14.6 4.65 14.6L19.35 14.6C19.709 14.6 20 14.309 20 13.95C20 13.5911 19.709 13.3 19.35 13.3L4.65 13.3ZM4 10.05C4 9.69104 4.29101 9.40002 4.65 9.40002L19.35 9.40002C19.709 9.40002 20 9.69104 20 10.05C20 10.409 19.709 10.7 19.35 10.7L4.65 10.7C4.29101 10.7 4 10.409 4 10.05ZM4.65 17.2C4.29101 17.2 4 17.491 4 17.85C4 18.2089 4.29101 18.5 4.65 18.5L19.35 18.5C19.709 18.5 20 18.2089 20 17.85C20 17.491 19.709 17.2 19.35 17.2L4.65 17.2Z"/></svg>

<svg xmlns="http://www.w3.org/2000/svg" fill="none" viewBox="0 0 24 24" focusable="false"><path fill="#74767B" fill-rule="evenodd" d="M4.64 5.5a.644.644 0 0 0 0 1.29h14.71c.35 0 .65-.29.65-.64 0-.36-.3-.65-.65-.65zm0 7.8c-.35 0-.64.29-.64.65 0 .35.29.65.64.65h14.71c.35 0 .65-.3.65-.65 0-.36-.3-.65-.65-.65zM4 10.05c0-.36.29-.65.64-.65h14.71c.35 0 .65.29.65.65 0 .35-.3.65-.65.65H4.64c-.35 0-.64-.3-.64-.65m.64 7.15a.644.644 0 0 0 0 1.29h14.71c.35 0 .65-.29.65-.64 0-.36-.3-.65-.65-.65z"/></svg>
